build/img/telegram.svg

<svg width="25" height="25" viewBox="0 0 25 25" fill="none" xmlns="http://www.w3.org/2000/svg">
<rect x="0.5" y="0.5" width="24" height="24" rx="12" fill="#010914" stroke="white"/>
<path d="M17.5 7.87639L15.6216 17.6827C15.6216 17.6827 15.3588 18.3626 14.6368 18.0365L10.3029 14.5954L10.2828 14.5852C10.8682 14.0409 15.4077 9.81416 15.6062 9.62258C15.9133 9.32585 15.7226 9.14921 15.366 9.37335L8.6605 13.7831L6.07352 12.8817C6.07352 12.8817 5.66641 12.7318 5.62725 12.4057C5.58756 12.0791 6.08692 11.9024 6.08692 11.9024L16.6332 7.61809C16.6332 7.61809 17.5 7.22371 17.5 7.87639Z" fill="white"/>
</svg>

<svg width="25" height="25" fill="none" xmlns="http://www.w3.org/2000/svg"><rect x=".5" y=".5" width="24" height="24" rx="12" fill="#010914" stroke="#fff"/><path d="M17.5 7.876l-1.878 9.807s-.263.68-.985.354l-4.334-3.442-.02-.01c.585-.544 5.125-4.77 5.323-4.962.307-.297.117-.474-.24-.25l-6.705 4.41-2.587-.901s-.408-.15-.447-.476c-.04-.327.46-.504.46-.504l10.546-4.284s.867-.394.867.258z" fill="#fff"/></svg>
